images/cvo-footer.svg

<svg width="136" height="160" viewBox="0 0 136 160" fill="none" xmlns="http://www.w3.org/2000/svg">
<g clip-path="url(#clip0_85185_169)">
<path d="M120.124 154.382C120.124 157.487 117.605 160.009 114.504 160.009H49.8447C50.7996 158.352 51.3452 156.43 51.3452 154.382C51.3452 152.333 50.7996 150.411 49.8447 148.754H114.513C117.614 148.754 120.133 151.277 120.133 154.382" fill="#395EF7"/>
<path d="M40.1415 160H23.4538C20.3527 160 17.8428 157.487 17.8428 154.382C17.8428 151.277 20.3618 148.754 23.4538 148.754H40.1415C43.2425 148.754 45.7525 151.267 45.7525 154.382C45.7525 157.496 43.2334 160 40.1415 160Z" fill="#37B5FE"/>
<path d="M90.3771 137.9V131.69H88.3127V137.9H85.9119V131.69H83.8475V137.9H81.4467V131.69H80.5464V129.868H81.4467V129.677C81.4467 128.075 82.2834 127.191 84.5387 127.191H84.857V129.003H84.6842C83.9749 129.003 83.8475 129.331 83.8475 129.868H85.9119V129.705C85.9119 128.038 86.7667 127.182 89.0312 127.182H89.3313V128.994H89.1494C88.44 128.994 88.3127 129.322 88.3127 129.859H92.7779V137.891H90.3771V137.9ZM90.3771 127.182H92.7779V128.994H90.3771V127.182Z" fill="#37B5FE"/>
<path d="M99.862 132.965C99.5164 132.209 98.8889 131.835 98.0705 131.835C96.9701 131.835 96.2153 132.746 96.2153 133.875C96.2153 135.004 97.0156 135.915 98.125 135.915C98.9344 135.915 99.4982 135.542 99.862 134.84H102.308C101.826 136.853 100.108 138.155 98.0614 138.155C95.6878 138.155 93.8145 136.224 93.8145 133.857C93.8145 131.489 95.706 129.586 98.025 129.586C100.135 129.586 101.854 130.916 102.308 132.955H99.8802L99.862 132.965Z" fill="#37B5FE"/>
<path d="M105.237 134.613C105.364 135.523 106.128 136.133 107.119 136.133C107.774 136.133 108.192 135.888 108.583 135.378H111.039C110.275 137.126 108.811 138.155 107.119 138.155C104.809 138.155 102.872 136.288 102.872 133.902C102.872 131.517 104.718 129.586 107.083 129.586C109.447 129.586 111.32 131.48 111.32 133.975C111.32 134.203 111.311 134.394 111.266 134.613H105.246H105.237ZM108.911 132.992C108.72 132.172 108.001 131.617 107.074 131.617C106.2 131.617 105.455 132.136 105.264 132.992H108.911Z" fill="#37B5FE"/>
<path d="M112.312 137.9V129.869H114.567V130.724H114.595C115.013 129.869 115.677 129.595 116.604 129.595V132.017C115.168 132.036 114.713 132.564 114.713 133.484V137.909H112.312V137.9Z" fill="#37B5FE"/>
<path d="M74.3715 138.528C71.134 138.528 68.5059 135.888 68.5059 132.655C68.5059 129.422 71.134 126.782 74.3715 126.782C77.609 126.782 80.2372 129.413 80.2372 132.655C80.2372 135.897 77.5999 138.528 74.3715 138.528ZM74.3715 131.28C73.6076 131.28 72.9983 131.899 72.9983 132.655C72.9983 133.411 73.6167 134.03 74.3715 134.03C75.1263 134.03 75.7447 133.411 75.7447 132.655C75.7447 131.899 75.1263 131.28 74.3715 131.28Z" fill="#FFCB24"/>
<path d="M32.4297 126.718H34.876V128.575H32.4297V126.718ZM32.4297 129.441H34.876V137.627H32.4297V129.441Z" fill="#37B5FE"/>
<path d="M42.5059 137.627V136.743H42.4786C42.0239 137.499 41.1963 137.891 40.0323 137.891C37.5587 137.891 35.9399 135.988 35.9399 133.511C35.9399 131.034 37.6042 129.158 39.9959 129.158C40.9417 129.158 41.7056 129.441 42.3967 130.133V126.709H44.843V137.627H42.515H42.5059ZM42.5241 133.502C42.5241 132.364 41.651 131.453 40.4415 131.453C39.232 131.453 38.3772 132.309 38.3772 133.502C38.3772 134.695 39.2411 135.605 40.4233 135.605C41.6056 135.605 42.515 134.704 42.515 133.502" fill="#37B5FE"/>
<path d="M47.8621 134.276C47.9985 135.205 48.7806 135.824 49.7809 135.824C50.4448 135.824 50.8722 135.569 51.2724 135.059H53.7732C52.9911 136.844 51.5088 137.891 49.7809 137.891C47.4256 137.891 45.4521 135.988 45.4521 133.556C45.4521 131.125 47.3346 129.158 49.7355 129.158C52.1363 129.158 54.0461 131.089 54.0461 133.629C54.0461 133.866 54.0279 134.057 53.9824 134.276H47.853H47.8621ZM51.6088 132.628C51.4179 131.79 50.6812 131.225 49.7355 131.225C48.8533 131.225 48.0803 131.753 47.8894 132.628H51.5997H51.6088Z" fill="#37B5FE"/>
<path d="M59.1115 137.882C56.6197 137.882 54.71 136.042 54.71 133.529C54.71 131.016 56.6652 129.177 59.1115 129.177C61.5578 129.177 63.513 131.016 63.513 133.502C63.513 135.988 61.5669 137.882 59.1115 137.882ZM61.0667 133.529C61.0667 132.436 60.2392 131.462 59.0933 131.462C58.0202 131.462 57.1472 132.409 57.1472 133.529C57.1472 134.649 58.002 135.596 59.1115 135.596C60.221 135.596 61.0667 134.622 61.0667 133.529Z" fill="#37B5FE"/>
<path d="M61.8125 133.529C61.8125 135.023 60.603 136.234 59.1116 136.234C57.6202 136.234 56.4106 135.023 56.4106 133.529C56.4106 132.036 57.6202 130.825 59.1116 130.825C60.603 130.825 61.8125 132.036 61.8125 133.529Z" fill="#37B5FE"/>
<path d="M57.9019 135.86V131.198L61.6304 133.529L57.9019 135.86Z" fill="white"/>
<path d="M26.4364 138.437C26.1454 138.437 25.8453 138.383 25.5634 138.264C24.4175 137.782 23.881 136.461 24.3629 135.314L27.4367 128.029C27.9187 126.891 29.2374 126.345 30.3832 126.836C31.5291 127.319 32.0656 128.639 31.5836 129.787L28.5098 137.071C28.1461 137.927 27.3185 138.446 26.4364 138.446" fill="#FFCB24"/>
<path d="M26.4364 138.437C25.5725 138.437 24.754 137.936 24.3812 137.099L21.1619 129.814C20.6617 128.676 21.171 127.346 22.3077 126.845C23.4445 126.345 24.7722 126.854 25.2724 127.993L28.4917 135.277C28.9919 136.416 28.4826 137.745 27.3458 138.246C27.0457 138.373 26.7456 138.437 26.4364 138.437Z" fill="#FFCB24"/>
<path d="M58.4205 90.2396H51.5908V121.409H58.4205V90.2396Z" fill="#37B5FE"/>
<path d="M81.6375 111.875C82.0103 114.47 84.1838 116.201 86.9848 116.201C88.84 116.201 90.0222 115.499 91.1408 114.061H98.1341C95.9515 119.042 91.7955 121.965 86.9848 121.965C80.4007 121.965 74.8896 116.647 74.8896 109.854C74.8896 103.061 80.1551 97.579 86.8575 97.579C93.5598 97.579 98.9071 102.97 98.9071 110.063C98.9071 110.728 98.8616 111.256 98.7434 111.875H81.6284H81.6375ZM92.0866 107.259C91.55 104.909 89.4947 103.343 86.8666 103.343C84.393 103.343 82.2559 104.827 81.7284 107.259H92.0956H92.0866Z" fill="#37B5FE"/>
<path d="M102.036 121.409V103.562H99.4893V98.3712H102.036V97.4241C102.036 93.6361 103.518 90.1758 110.802 90.1758H111.748V95.3207H111.503C109.729 95.3207 108.865 95.776 108.865 97.67V98.3712H111.748V103.562H108.865V121.409H102.036Z" fill="#37B5FE"/>
<path d="M34.1755 62.5303H22.9443V78.8845H34.1755V62.5303Z" fill="#395EF7"/>
<path d="M28.5645 68.1486C12.8136 68.1486 0 55.3184 0 39.547C0 23.7755 12.8136 10.9635 28.5645 10.9635C36.9856 10.9635 44.9338 14.6605 50.363 21.1075C52.3637 23.475 52.0636 27.0263 49.6901 29.0296C47.3165 31.0329 43.7698 30.7324 41.7782 28.3558C38.4861 24.4494 33.6663 22.2093 28.5645 22.2093C19.0066 22.2093 11.2312 29.9858 11.2312 39.547C11.2312 49.1082 19.0066 56.9028 28.5645 56.9028C31.6656 56.9028 34.1756 59.4161 34.1756 62.5303C34.1756 65.6445 31.6565 68.1486 28.5645 68.1486Z" fill="#395EF7"/>
<path d="M46.0797 30.3955C45.7705 30.3955 45.4613 30.3773 45.143 30.3227C42.0874 29.8128 40.023 26.908 40.5323 23.8484C42.8422 10.0256 54.6918 0 68.7057 0C82.7197 0 93.5508 9.12412 96.5427 22.1911C97.2339 25.2143 95.3423 28.2374 92.3231 28.9295C89.2947 29.6215 86.2846 27.7275 85.5934 24.7043C83.7837 16.7822 76.8358 11.2549 68.7057 11.2549C60.5756 11.2549 53.0093 17.3377 51.6089 25.7151C51.1451 28.4651 48.7715 30.4046 46.0797 30.4046" fill="#37B5FE"/>
<path d="M112.985 62.5303H101.753V78.8845H112.985V62.5303Z" fill="#FFCB24"/>
<path d="M107.365 68.1486C104.264 68.1486 101.745 65.6263 101.745 62.5303C101.745 59.4343 104.264 56.9028 107.365 56.9028C116.923 56.9028 124.698 49.1173 124.698 39.547C124.698 29.9766 116.923 22.2093 107.365 22.2093C102.754 22.2093 98.4162 24.0032 95.1424 27.2631C94.1238 28.3467 92.6688 29.0296 91.0591 29.0296C87.958 29.0296 85.439 26.5164 85.439 23.4113C85.439 21.9179 86.021 20.4974 87.0668 19.4411C92.4778 13.9685 99.6894 10.9635 107.365 10.9635C123.116 10.9635 135.929 23.7846 135.929 39.5561C135.929 55.3275 123.116 68.1577 107.365 68.1577" fill="#FFCB24"/>
<path d="M51.9092 73.8763V46.7953C51.9092 42.4609 56.6017 39.7564 60.3394 41.9327L83.6384 55.4732C87.367 57.6404 87.367 63.0311 83.6384 65.1983L60.3394 78.7388C56.5926 80.9151 51.9092 78.2107 51.9092 73.8763Z" fill="white"/>
<path d="M72.2341 105.765H66.1684C65.7228 103.871 64.0222 102.469 61.9942 102.469C59.6207 102.469 57.6927 104.399 57.6927 106.776H51.6997C51.6997 101.094 56.3104 96.468 61.9851 96.468C67.3142 96.468 71.7158 100.557 72.225 105.765" fill="#37B5FE"/>
<path d="M38.3678 121.691C34.2936 121.691 30.2195 120.134 27.1184 117.029C20.9163 110.819 20.9163 100.702 27.1184 94.492C30.1104 91.4962 34.0754 89.848 38.3041 89.8389H38.3223C41.4143 89.8389 43.9334 92.3431 43.9425 95.4482C43.9425 98.5533 41.4416 101.076 38.3405 101.085C37.1128 101.085 35.9397 101.576 35.0666 102.451C33.2387 104.281 33.2387 107.259 35.0666 109.08C36.8946 110.91 39.8683 110.91 41.6871 109.08C42.5602 108.206 43.0512 107.04 43.0603 105.792C43.0785 102.696 45.5885 100.201 48.6714 100.201H48.7078C51.8088 100.22 54.3097 102.751 54.2915 105.856C54.2643 110.081 52.6091 114.042 49.6354 117.029C46.5343 120.134 42.4601 121.691 38.386 121.691" fill="#FFCB24"/>
<path d="M39.5321 94.2553C39.5321 95.7032 38.359 96.8778 36.913 96.8778C35.4671 96.8778 34.2939 95.7032 34.2939 94.2553C34.2939 92.8075 35.4671 91.6328 36.913 91.6328C38.359 91.6328 39.5321 92.8075 39.5321 94.2553Z" fill="white"/>
<path d="M39.2684 94.2553C39.2684 95.0111 38.65 95.6303 37.8952 95.6303C37.1404 95.6303 36.522 95.0111 36.522 94.2553C36.522 93.4995 37.1404 92.8803 37.8952 92.8803C38.65 92.8803 39.2684 93.4995 39.2684 94.2553Z" fill="black"/>
<path d="M72.2887 113.359H66.2866V121.4H72.2887V113.359Z" fill="#395EF7"/>
<path d="M72.2887 107.259H66.2866V111.857H72.2887V107.259Z" fill="#395EF7"/>
<path d="M72.2887 107.259H66.2866V111.857H72.2887V107.259Z" fill="#395EF7"/>
</g>
<defs>
<clipPath id="clip0_85185_169">
<rect width="135.929" height="160" fill="white"/>
</clipPath>
</defs>
</svg>

<svg width="136" height="160" fill="none" xmlns="http://www.w3.org/2000/svg"><g clip-path="url(#clip0_85185_169)"><path d="M120.124 154.382a5.627 5.627 0 01-5.62 5.627h-64.66a11.235 11.235 0 001.501-5.627c0-2.049-.545-3.971-1.5-5.628h64.668a5.628 5.628 0 015.62 5.628" fill="#395EF7"/><path d="M40.142 160H23.454a5.612 5.612 0 01-5.611-5.618c0-3.105 2.519-5.628 5.61-5.628h16.689a5.614 5.614 0 015.61 5.628 5.612 5.612 0 01-5.61 5.618zm50.235-22.1v-6.21h-2.064v6.21h-2.401v-6.21h-2.065v6.21h-2.4v-6.21h-.9v-1.822h.9v-.191c0-1.602.836-2.486 3.092-2.486h.318v1.812h-.173c-.71 0-.837.328-.837.865h2.065v-.163c0-1.667.855-2.523 3.12-2.523h.3v1.812h-.183c-.709 0-.836.328-.836.865h4.465v8.032h-2.4v.009zm0-10.718h2.4v1.812h-2.4v-1.812zm9.485 5.783c-.346-.756-.973-1.13-1.791-1.13-1.1 0-1.856.911-1.856 2.04s.8 2.04 1.91 2.04c.81 0 1.373-.373 1.737-1.075h2.446c-.482 2.013-2.2 3.315-4.247 3.315-2.373 0-4.247-1.931-4.247-4.298 0-2.368 1.892-4.271 4.211-4.271 2.11 0 3.829 1.33 4.283 3.369H99.88l-.018.01zm5.375 1.648c.127.91.891 1.52 1.882 1.52.655 0 1.073-.245 1.464-.755h2.456c-.764 1.748-2.228 2.777-3.92 2.777a4.249 4.249 0 01-4.247-4.253c0-2.385 1.846-4.316 4.211-4.316 2.364 0 4.237 1.894 4.237 4.389 0 .228-.009.419-.054.638h-6.029zm3.674-1.621c-.191-.82-.91-1.375-1.837-1.375-.874 0-1.619.519-1.81 1.375h3.647zm3.401 4.908v-8.031h2.255v.855h.028c.418-.855 1.082-1.129 2.009-1.129v2.422c-1.436.019-1.891.547-1.891 1.467v4.425h-2.401v-.009z" fill="#37B5FE"/><path d="M74.371 138.528c-3.237 0-5.865-2.64-5.865-5.873s2.628-5.873 5.865-5.873a5.872 5.872 0 015.866 5.873c0 3.242-2.637 5.873-5.865 5.873zm0-7.248c-.763 0-1.373.619-1.373 1.375s.619 1.375 1.373 1.375c.755 0 1.374-.619 1.374-1.375s-.619-1.375-1.374-1.375z" fill="#FFCB24"/><path d="M32.43 126.718h2.446v1.857H32.43v-1.857zm0 2.723h2.446v8.186H32.43v-8.186zm10.076 8.186v-.884h-.027c-.455.756-1.283 1.148-2.447 1.148-2.473 0-4.092-1.903-4.092-4.38s1.664-4.353 4.056-4.353c.946 0 1.71.283 2.4.975v-3.424h2.447v10.918h-2.338zm.018-4.125c0-1.138-.873-2.049-2.083-2.049-1.209 0-2.064.856-2.064 2.049s.864 2.103 2.046 2.103c1.183 0 2.092-.901 2.092-2.103m5.347.774c.136.929.919 1.548 1.919 1.548.664 0 1.091-.255 1.491-.765h2.501c-.782 1.785-2.264 2.832-3.992 2.832a4.33 4.33 0 01-4.329-4.335c0-2.431 1.883-4.398 4.284-4.398 2.4 0 4.31 1.931 4.31 4.471 0 .237-.018.428-.064.647h-6.129.01zm3.747-1.648c-.191-.838-.928-1.403-1.873-1.403-.883 0-1.656.528-1.847 1.403h3.721zm7.502 5.254c-2.491 0-4.401-1.84-4.401-4.353s1.955-4.352 4.401-4.352c2.447 0 4.402 1.839 4.402 4.325s-1.946 4.38-4.401 4.38zm1.956-4.353c0-1.093-.828-2.067-1.974-2.067-1.073 0-1.946.947-1.946 2.067s.855 2.067 1.965 2.067c1.109 0 1.955-.974 1.955-2.067z" fill="#37B5FE"/><path d="M61.813 133.529a2.703 2.703 0 01-2.701 2.705 2.703 2.703 0 01-2.701-2.705 2.703 2.703 0 012.7-2.704 2.703 2.703 0 012.702 2.704z" fill="#37B5FE"/><path d="M57.902 135.86v-4.662l3.728 2.331-3.728 2.331z" fill="#fff"/><path d="M26.436 138.437a2.25 2.25 0 01-.873-.173 2.253 2.253 0 01-1.2-2.95l3.074-7.285a2.245 2.245 0 012.946-1.193 2.254 2.254 0 011.2 2.951l-3.073 7.284a2.25 2.25 0 01-2.074 1.375" fill="#FFCB24"/><path d="M26.436 138.437a2.25 2.25 0 01-2.055-1.338l-3.22-7.285a2.251 2.251 0 011.147-2.969 2.246 2.246 0 012.964 1.148l3.22 7.284a2.251 2.251 0 01-2.056 3.16z" fill="#FFCB24"/><path d="M58.42 90.24h-6.83v31.169h6.83v-31.17zm23.218 21.635c.372 2.595 2.546 4.326 5.347 4.326 1.855 0 3.037-.702 4.156-2.14h6.993c-2.183 4.981-6.338 7.904-11.15 7.904-6.583 0-12.094-5.318-12.094-12.111 0-6.793 5.265-12.275 11.968-12.275 6.702 0 12.05 5.391 12.05 12.484 0 .665-.046 1.193-.165 1.812H81.628h.01zm10.449-4.616c-.537-2.35-2.592-3.916-5.22-3.916-2.474 0-4.611 1.484-5.139 3.916h10.368-.01zm9.949 14.15v-17.847h-2.547v-5.19h2.547v-.948c0-3.788 1.482-7.248 8.766-7.248h.946v5.145h-.245c-1.774 0-2.638.455-2.638 2.349v.701h2.883v5.191h-2.883v17.847h-6.829z" fill="#37B5FE"/><path d="M34.175 62.53h-11.23v16.355h11.23V62.53z" fill="#395EF7"/><path d="M28.564 68.149C12.814 68.149 0 55.319 0 39.547c0-15.771 12.814-28.583 28.564-28.583 8.422 0 16.37 3.697 21.799 10.144 2 2.367 1.7 5.918-.673 7.922a5.606 5.606 0 01-7.912-.674 17.25 17.25 0 00-13.213-6.147c-9.558 0-17.334 7.777-17.334 17.338s7.776 17.356 17.334 17.356a5.614 5.614 0 015.61 5.627 5.612 5.612 0 01-5.61 5.619z" fill="#395EF7"/><path d="M46.08 30.395a5.54 5.54 0 01-.937-.072c-3.056-.51-5.12-3.415-4.61-6.475A28.47 28.47 0 0168.705 0C82.72 0 93.55 9.124 96.543 22.191c.69 3.023-1.2 6.046-4.22 6.739a5.618 5.618 0 01-6.73-4.226c-1.81-7.922-8.757-13.45-16.887-13.45s-15.697 6.084-17.097 14.461a5.615 5.615 0 01-5.53 4.69" fill="#37B5FE"/><path d="M112.985 62.53h-11.232v16.355h11.232V62.53z" fill="#FFCB24"/><path d="M107.365 68.149a5.625 5.625 0 01-5.62-5.619c0-3.096 2.519-5.627 5.62-5.627 9.558 0 17.333-7.786 17.333-17.356 0-9.57-7.775-17.338-17.333-17.338a17.21 17.21 0 00-12.223 5.054 5.596 5.596 0 01-4.083 1.767 5.62 5.62 0 01-5.62-5.619c0-1.493.582-2.914 1.628-3.97 5.41-5.472 12.622-8.477 20.298-8.477 15.751 0 28.564 12.82 28.564 28.592 0 15.772-12.813 28.602-28.564 28.602" fill="#FFCB24"/><path d="M51.91 73.876v-27.08c0-4.335 4.692-7.04 8.43-4.863l23.298 13.54c3.729 2.167 3.729 7.558 0 9.725L60.34 78.738c-3.746 2.177-8.43-.527-8.43-4.862z" fill="#fff"/><path d="M72.234 105.765h-6.066a4.284 4.284 0 00-4.174-3.296 4.307 4.307 0 00-4.301 4.307H51.7c0-5.682 4.61-10.308 10.285-10.308 5.33 0 9.73 4.089 10.24 9.297" fill="#37B5FE"/><path d="M38.368 121.691a15.854 15.854 0 01-11.25-4.662c-6.202-6.21-6.202-16.327 0-22.537a15.74 15.74 0 0111.186-4.653h.018a5.624 5.624 0 01.018 11.246 4.62 4.62 0 00-3.273 1.366c-1.828 1.83-1.828 4.808 0 6.629 1.828 1.83 4.801 1.83 6.62 0a4.672 4.672 0 001.373-3.288 5.618 5.618 0 015.611-5.591h.037a5.62 5.62 0 015.584 5.655 15.88 15.88 0 01-4.657 11.173 15.854 15.854 0 01-11.249 4.662" fill="#FFCB24"/><path d="M39.532 94.255a2.621 2.621 0 01-2.619 2.623 2.621 2.621 0 01-2.62-2.623 2.622 2.622 0 012.62-2.622 2.621 2.621 0 012.62 2.622z" fill="#fff"/><path d="M39.268 94.255c0 .756-.618 1.375-1.373 1.375s-1.373-.619-1.373-1.375c0-.755.618-1.375 1.373-1.375s1.373.62 1.373 1.375z" fill="#000"/><path d="M72.289 113.359h-6.002v8.041h6.002v-8.041zm0-6.1h-6.002v4.598h6.002v-4.598z" fill="#395EF7"/><path d="M72.289 107.259h-6.002v4.598h6.002v-4.598z" fill="#395EF7"/></g><defs><clipPath id="clip0_85185_169"><path fill="#fff" d="M0 0h135.929v160H0z"/></clipPath></defs></svg>
